src/img/icons.svg

<svg xmlns="http://www.w3.org/2000/svg" aria-hidden="true" style="position:absolute;width:0;height:0;overflow:hidden">
  <defs>
    <symbol id="icon-arrow" viewBox="0 0 32 32">
      <path d="M32 4.741 27.259 0v23.704L3.555 0-.001 3.556 23.703 27.26H-.001l4.741 4.741h27.259V4.742z"/>
    </symbol>
    <symbol id="icon-youtube" viewBox="0 0 32 32">
      <path fill="#ae1332" d="M24.24 6c-1.36-.08-4.16-.16-8.4-.16h-.56c-4.08 0-6.8.08-8.16.24-1.84.16-3.12.64-3.84 1.28-.64.56-1.12 1.6-1.28 2.96-.08.88-.16 2.72-.16 5.52v.4c0 2.64.08 4.48.24 5.36.24 1.28.64 2.24 1.44 2.8.8.64 2.16 1.04 4.08 1.2 1.36.08 4.16.16 8.4.16h.56c4.08 0 6.8-.08 8.16-.24 1.84-.16 3.12-.64 3.84-1.28.64-.56 1.12-1.6 1.28-2.96.08-.88.16-2.72.16-5.52v-.4c0-2.64-.08-4.48-.24-5.36-.24-1.28-.64-2.24-1.44-2.8-.8-.64-2.16-1.04-4.08-1.2zm-3.12 9.84-8.8 5.28V10.56l8.8 5.28z" opacity=".8" style="fill:var(--color1, #ae1332)"/>
    </symbol>
    <symbol id="icon-instagram" viewBox="0 0 32 32">
      <path fill="#ae1332" d="M28.717 10.756a9.264 9.264 0 0 0-.596-3.145 6.547 6.547 0 0 0-3.743-3.737 9.42 9.42 0 0 0-3.108-.596c-1.368-.061-1.801-.078-5.273-.078s-3.917 0-5.274.078a9.418 9.418 0 0 0-3.106.596 6.541 6.541 0 0 0-3.743 3.737 9.288 9.288 0 0 0-.596 3.101c-.061 1.367-.08 1.8-.08 5.265s0 3.909.08 5.265a9.335 9.335 0 0 0 .596 3.104 6.548 6.548 0 0 0 3.744 3.735 9.37 9.37 0 0 0 3.106.639c1.369.061 1.803.08 5.274.08s3.916 0 5.274-.08a9.357 9.357 0 0 0 3.108-.595 6.555 6.555 0 0 0 3.743-3.737 9.35 9.35 0 0 0 .596-3.104c.061-1.365.08-1.798.08-5.265-.003-3.466-.003-3.906-.082-5.264zM15.99 22.531c-3.631 0-6.572-2.936-6.572-6.561s2.941-6.561 6.572-6.561c3.628 0 6.572 2.936 6.572 6.561s-2.944 6.561-6.572 6.561zm6.833-11.835a1.53 1.53 0 1 1 0-3.06 1.53 1.53 0 1 1 0 3.06z" opacity=".8" style="fill:var(--color1, #ae1332)"/>
      <path fill="#ae1332" d="M15.992 19.976a4.004 4.004 0 1 0 0-8.009 4.004 4.004 0 0 0 0 8.009z" opacity=".8" style="fill:var(--color1, #ae1332)"/>
    </symbol>
    <symbol id="icon-facebook" viewBox="0 0 32 32">
      <path fill="#ae1332" d="M19.52 4.64h.96v3.6h-1.2c-.48 0-.96 0-1.2.24s-.24.48-.24 1.04v1.28h2.64v3.04h-2.64v13.2h-4.08V13.76H11.6v-3.04h2.16V9.68c0-1.76.24-3.04.72-3.6.72-1.04 2.16-1.52 4.32-1.52.24.08.48.08.72.08z" opacity=".8" style="fill:var(--color1, #ae1332)"/>
    </symbol>
    <symbol id="icon-basket" viewBox="0 0 32 32">
<path stroke-linejoin="miter" stroke-linecap="butt" stroke-miterlimit="4" stroke-width="2" d="M5.114 31l-3.933-23.6h29.639l-3.933 23.6h-21.772z"></path>
<path d="M6.533 7.467c0-5.228 4.238-9.467 9.467-9.467s9.467 4.238 9.467 9.467h-4c0-3.019-2.448-5.467-5.467-5.467s-5.467 2.447-5.467 5.467h-4zM23.467 12.8v0zM6.533 12.8v-5.333c0-5.228 4.238-9.467 9.467-9.467v4c-3.019 0-5.467 2.447-5.467 5.467v5.333h-4zM16-2c5.228 0 9.467 4.238 9.467 9.467v5.333h-4v-5.333c0-3.019-2.448-5.467-5.467-5.467v-4z"></path>
</symbol>
    <symbol id="icon-logo" viewBox="0 0 32 32">
      <path fill="#ae1332" d="M29.082.314h-4.009c-1.237 0-2.24.983-2.24 2.195v3.929c0 1.212 1.003 2.195 2.24 2.195h4.009c1.237 0 2.24-.983 2.24-2.195V2.509c0-1.212-1.003-2.195-2.24-2.195zM6.73 23.04H2.412C1.08 23.04 0 24.023 0 25.235v3.929c0 1.213 1.08 2.195 2.412 2.195H6.73c1.332 0 2.412-.983 2.412-2.195v-3.929c0-1.212-1.08-2.195-2.412-2.195zM6.25 11.582H2.241c-1.237 0-2.24.983-2.24 2.195v3.929c0 1.212 1.003 2.195 2.24 2.195H6.25c1.237 0 2.24-.983 2.24-2.195v-3.929c0-1.212-1.003-2.195-2.24-2.195zM17.766 22.978h-4.009c-1.237 0-2.24.983-2.24 2.195v3.929c0 1.212 1.003 2.195 2.241 2.195h4.009c1.237 0 2.24-.983 2.24-2.195v-3.929c0-1.213-1.003-2.195-2.24-2.195zM6.25.086H2.241c-1.237 0-2.24.983-2.24 2.195V6.21c0 1.212 1.003 2.195 2.24 2.195H6.25c1.237 0 2.24-.983 2.24-2.195V2.281C8.49 1.069 7.487.086 6.25.086zM18.076 11.697h-4.009c-1.237 0-2.24.983-2.24 2.195v3.929c0 1.212 1.003 2.195 2.24 2.195h4.009c1.237 0 2.24-.983 2.24-2.195v-3.929c0-1.212-1.003-2.195-2.24-2.195zM29.333 22.978h-4.01c-1.237 0-2.24.983-2.24 2.195v3.929c0 1.212 1.003 2.195 2.24 2.195h4.009c1.237 0 2.24-.983 2.24-2.195v-3.929c0-1.213-1.003-2.195-2.24-2.195zM17.591.224h-4.009c-1.237 0-2.24.983-2.24 2.195v3.929c0 1.212 1.003 2.195 2.24 2.195h4.009c1.237 0 2.24-.984 2.24-2.196V2.418c0-1.212-1.003-2.195-2.24-2.195zM29.044 11.926h-4.01c-1.237 0-2.24.983-2.24 2.195v3.929c0 1.212 1.003 2.195 2.24 2.195h4.009c1.237 0 2.24-.983 2.24-2.195v-3.929c0-1.212-1.003-2.195-2.24-2.195z" style="fill:var(--color1, #ae1332)"/>
    </symbol>
  </defs>
</svg>

<svg xmlns="http://www.w3.org/2000/svg" aria-hidden="true" style="position:absolute;width:0;height:0;overflow:hidden">
  <defs>
    <symbol id="icon-arrow" viewBox="0 0 32 32">
      <path d="M32 4.741 27.259 0v23.704L3.555 0-.001 3.556 23.703 27.26H-.001l4.741 4.741h27.259V4.742z"/>
    </symbol>
    <symbol id="icon-youtube" viewBox="0 0 32 32">
      <path fill="#ae1332" d="M24.24 6c-1.36-.08-4.16-.16-8.4-.16h-.56c-4.08 0-6.8.08-8.16.24-1.84.16-3.12.64-3.84 1.28-.64.56-1.12 1.6-1.28 2.96-.08.88-.16 2.72-.16 5.52v.4c0 2.64.08 4.48.24 5.36.24 1.28.64 2.24 1.44 2.8.8.64 2.16 1.04 4.08 1.2 1.36.08 4.16.16 8.4.16h.56c4.08 0 6.8-.08 8.16-.24 1.84-.16 3.12-.64 3.84-1.28.64-.56 1.12-1.6 1.28-2.96.08-.88.16-2.72.16-5.52v-.4c0-2.64-.08-4.48-.24-5.36-.24-1.28-.64-2.24-1.44-2.8-.8-.64-2.16-1.04-4.08-1.2zm-3.12 9.84-8.8 5.28V10.56l8.8 5.28z" opacity=".8" style="fill:var(--color1, #ae1332)"/>
    </symbol>
    <symbol id="icon-instagram" viewBox="0 0 32 32">
      <path fill="#ae1332" d="M28.717 10.756a9.264 9.264 0 0 0-.596-3.145 6.547 6.547 0 0 0-3.743-3.737 9.42 9.42 0 0 0-3.108-.596c-1.368-.061-1.801-.078-5.273-.078s-3.917 0-5.274.078a9.418 9.418 0 0 0-3.106.596 6.541 6.541 0 0 0-3.743 3.737 9.288 9.288 0 0 0-.596 3.101c-.061 1.367-.08 1.8-.08 5.265s0 3.909.08 5.265a9.335 9.335 0 0 0 .596 3.104 6.548 6.548 0 0 0 3.744 3.735 9.37 9.37 0 0 0 3.106.639c1.369.061 1.803.08 5.274.08s3.916 0 5.274-.08a9.357 9.357 0 0 0 3.108-.595 6.555 6.555 0 0 0 3.743-3.737 9.35 9.35 0 0 0 .596-3.104c.061-1.365.08-1.798.08-5.265-.003-3.466-.003-3.906-.082-5.264zM15.99 22.531c-3.631 0-6.572-2.936-6.572-6.561s2.941-6.561 6.572-6.561c3.628 0 6.572 2.936 6.572 6.561s-2.944 6.561-6.572 6.561zm6.833-11.835a1.53 1.53 0 1 1 0-3.06 1.53 1.53 0 1 1 0 3.06z" opacity=".8" style="fill:var(--color1, #ae1332)"/>
      <path fill="#ae1332" d="M15.992 19.976a4.004 4.004 0 1 0 0-8.009 4.004 4.004 0 0 0 0 8.009z" opacity=".8" style="fill:var(--color1, #ae1332)"/>
    </symbol>
    <symbol id="icon-facebook" viewBox="0 0 32 32">
      <path fill="#ae1332" d="M19.52 4.64h.96v3.6h-1.2c-.48 0-.96 0-1.2.24s-.24.48-.24 1.04v1.28h2.64v3.04h-2.64v13.2h-4.08V13.76H11.6v-3.04h2.16V9.68c0-1.76.24-3.04.72-3.6.72-1.04 2.16-1.52 4.32-1.52.24.08.48.08.72.08z" opacity=".8" style="fill:var(--color1, #ae1332)"/>
    </symbol>
    <symbol id="icon-basket" viewBox="0 0 32 32">
      <path fill="none" stroke="#ae1332" stroke-width="2" d="M5.114 31 1.181 7.4H30.82L26.887 31H5.115z" style="stroke:var(--color1, #ae1332)"/>
      <path fill="#ae1332" d="M6.533 7.467C6.533 2.239 10.771-2 16-2s9.467 4.238 9.467 9.467h-4a5.467 5.467 0 0 0-10.934 0h-4zM23.467 12.8zm-16.934 0V7.467A9.467 9.467 0 0 1 16-2v4a5.467 5.467 0 0 0-5.467 5.467V12.8h-4zM16-2a9.467 9.467 0 0 1 9.467 9.467V12.8h-4V7.467A5.467 5.467 0 0 0 16 2v-4z" style="fill:var(--color1, #ae1332)"/>
    </symbol>
    <symbol id="icon-logo" viewBox="0 0 32 32">
      <path fill="#ae1332" d="M29.082.314h-4.009c-1.237 0-2.24.983-2.24 2.195v3.929c0 1.212 1.003 2.195 2.24 2.195h4.009c1.237 0 2.24-.983 2.24-2.195V2.509c0-1.212-1.003-2.195-2.24-2.195zM6.73 23.04H2.412C1.08 23.04 0 24.023 0 25.235v3.929c0 1.213 1.08 2.195 2.412 2.195H6.73c1.332 0 2.412-.983 2.412-2.195v-3.929c0-1.212-1.08-2.195-2.412-2.195zM6.25 11.582H2.241c-1.237 0-2.24.983-2.24 2.195v3.929c0 1.212 1.003 2.195 2.24 2.195H6.25c1.237 0 2.24-.983 2.24-2.195v-3.929c0-1.212-1.003-2.195-2.24-2.195zM17.766 22.978h-4.009c-1.237 0-2.24.983-2.24 2.195v3.929c0 1.212 1.003 2.195 2.241 2.195h4.009c1.237 0 2.24-.983 2.24-2.195v-3.929c0-1.213-1.003-2.195-2.24-2.195zM6.25.086H2.241c-1.237 0-2.24.983-2.24 2.195V6.21c0 1.212 1.003 2.195 2.24 2.195H6.25c1.237 0 2.24-.983 2.24-2.195V2.281C8.49 1.069 7.487.086 6.25.086zM18.076 11.697h-4.009c-1.237 0-2.24.983-2.24 2.195v3.929c0 1.212 1.003 2.195 2.24 2.195h4.009c1.237 0 2.24-.983 2.24-2.195v-3.929c0-1.212-1.003-2.195-2.24-2.195zM29.333 22.978h-4.01c-1.237 0-2.24.983-2.24 2.195v3.929c0 1.212 1.003 2.195 2.24 2.195h4.009c1.237 0 2.24-.983 2.24-2.195v-3.929c0-1.213-1.003-2.195-2.24-2.195zM17.591.224h-4.009c-1.237 0-2.24.983-2.24 2.195v3.929c0 1.212 1.003 2.195 2.24 2.195h4.009c1.237 0 2.24-.984 2.24-2.196V2.418c0-1.212-1.003-2.195-2.24-2.195zM29.044 11.926h-4.01c-1.237 0-2.24.983-2.24 2.195v3.929c0 1.212 1.003 2.195 2.24 2.195h4.009c1.237 0 2.24-.983 2.24-2.195v-3.929c0-1.212-1.003-2.195-2.24-2.195z" style="fill:var(--color1, #ae1332)"/>
    </symbol>
  </defs>
</svg>
